X:1
T:Old Joe Clark
M:2/4
L:1/8
K:G
 A| AB c B/2B/2| AG F2| AB cB| A2 z A| AB cB| AG F2| DF EE| D4| D3/2 D/2 D2|\
 AG F2| D3/2 D/2 DF| E4| D3/2 D/2 D2| AG F2| DF EC| D2 z||
